lib/svgs/turn-right.svg

<svg xmlns="http://www.w3.org/2000/svg" viewBox="0 0 20 20">
    <path fill="#000" fill-rule="evenodd" d="M17.4000075,9.409 L17.4000075,9.409 C17.0680075,9.409 16.8000075,9.677 16.7990075,10.009 C16.7950075,13.755 13.7450075,16.801 10.0000075,16.801 L9.99100752,16.801 C6.24100752,16.795 3.19500752,13.74 3.20000752,9.991 C3.20200752,8.175 3.91100752,6.468 5.19700752,5.185 C6.48100752,3.905 8.18600752,3.2 9.99900752,3.2 L10.0080075,3.2 C12.0240075,3.202 13.8790075,4.078 15.1720075,5.603 L12.9040075,5.599 L12.9030075,5.599 C12.5720075,5.599 12.3040075,5.867 12.3030075,6.199 C12.3030075,6.53 12.5710075,6.799 12.9020075,6.8 L16.3520075,6.804 L16.3530075,6.804 C16.6840075,6.804 16.9530075,6.536 16.9530075,6.205 L16.9580075,2.756 C16.9580075,2.424 16.6900075,2.155 16.3580075,2.155 L16.3580075,2.155 C16.0260075,2.155 15.7580075,2.423 15.7570075,2.754 L15.7550075,4.445 C14.2570075,2.884 12.2120075,2.002 10.0100075,2 L9.99900752,2 C7.86600752,2 5.86000752,2.829 4.35000752,4.336 C2.83700752,5.845 2.00200752,7.853 2.00000752,9.99 C1.99400752,14.4 5.57800752,17.994 9.99000752,18 L9.99900752,18 C14.4060075,18 17.9940075,14.418 18.0000075,10.01 C18.0000075,9.679 17.7320075,9.409 17.4000075,9.409"/>
</svg>

<svg xmlns="http://www.w3.org/2000/svg" viewBox="0 0 20 20">
    <path fill="#000" fill-rule="evenodd" d="M17.4 9.409a.6.6 0 0 0-.601.6A6.808 6.808 0 0 1 10 16.801h-.009A6.81 6.81 0 0 1 5.197 5.185 6.758 6.758 0 0 1 9.999 3.2h.009a6.73 6.73 0 0 1 5.164 2.403l-2.268-.004h-.001a.6.6 0 0 0-.001 1.201l3.45.004h.001a.6.6 0 0 0 .6-.599l.005-3.449a.6.6 0 1 0-1.201-.002l-.002 1.691A7.919 7.919 0 0 0 10.01 2h-.011A7.944 7.944 0 0 0 4.35 4.336 8.01 8.01 0 0 0 9.99 18h.009A8.01 8.01 0 0 0 18 10.01a.6.6 0 0 0-.6-.601z"/>
</svg>
